client/public/assets/icons/utility/rows.svg

<?xml version="1.0"?><svg xmlns="http://www.w3.org/2000/svg" width="52" height="52" viewBox="0 0 52 52"><path fill="#fff" d="m46.5 14h-41c-0.8 0-1.5-0.7-1.5-1.5v-3c0-0.8 0.7-1.5 1.5-1.5h41c0.8 0 1.5 0.7 1.5 1.5v3c0 0.8-0.7 1.5-1.5 1.5z m0 14.9h-41c-0.8 0-1.5-0.7-1.5-1.5v-3c0-0.7 0.7-1.4 1.5-1.4h41c0.8 0 1.5 0.7 1.5 1.5v3c0 0.7-0.7 1.4-1.5 1.4z m0 15.1h-41c-0.8 0-1.5-0.7-1.5-1.5v-3c0-0.8 0.7-1.5 1.5-1.5h41c0.8 0 1.5 0.7 1.5 1.5v3c0 0.8-0.7 1.5-1.5 1.5z"></path></svg>

<?xml version="1.0" encoding="utf-8"?>
<!-- Generator: Adobe Illustrator 18.1.1, SVG Export Plug-In . SVG Version: 6.00 Build 0)  -->
<svg version="1.1" id="Layer_1" xmlns="http://www.w3.org/2000/svg" xmlns:xlink="http://www.w3.org/1999/xlink" x="0px" y="0px"
	 width="52px" height="52px" viewBox="0 0 52 52" enable-background="new 0 0 52 52" xml:space="preserve">
<path fill="#FFFFFF" d="M46.5,14h-41C4.7,14,4,13.3,4,12.5v-3C4,8.7,4.7,8,5.5,8h41C47.3,8,48,8.7,48,9.5v3C48,13.3,47.3,14,46.5,14
	z"/>
<path fill="#FFFFFF" d="M46.5,28.9h-41c-0.8,0-1.5-0.7-1.5-1.5v-3C4,23.7,4.7,23,5.5,23h41c0.8,0,1.5,0.7,1.5,1.5v3
	C48,28.2,47.3,28.9,46.5,28.9z"/>
<path fill="#FFFFFF" d="M46.5,44h-41C4.7,44,4,43.3,4,42.5v-3C4,38.7,4.7,38,5.5,38h41c0.8,0,1.5,0.7,1.5,1.5v3
	C48,43.3,47.3,44,46.5,44z"/>
</svg>
